X:1
T:I’ve a Message from the Lord
T:William Augustine Ogden, 1887
T:I’ve a Message from the Lord
T:Public Domain
T:Public Domain
C:William Augustine Ogden, 1887
Z:Public Domain
%%score ( 1 2 ) ( 3 4 )
L:1/8
M:4/4
K:G
V:1 treble 
V:2 treble 
V:3 bass 
V:4 bass 
V:1
 DD | [DG][DG] [DG]>[DG] [CF]2 [CE]>[CD] | [Dd]4 [Ec]2 [EA]2 | [DG][DG][DG][DG] [DF]2 [DA]2 | %4
w: 1.~I’ve a|from the Lord, Hal- le- lu- jah!|The mess- age|un- to you I’ll give; ’Tis|
w: 2.~I’ve a|full of love, Hal- le- lu- jah!|A mess- age,|O my friend for you; ’Tis|
w: 3.~Life is|un- to you, Hal- le- lu- jah!|E- ter- nal|life your soul shall have, If|
w: 4.~I will|how I came, Hal- le- lu- jah!|To Je- sus,|when He made me whole; ’Twas|
 [DG]6 DD | [DG][DG][DG][DG] [CF]2 [CE]>[CD] | [Dd]4 [Ec]2 [EA][EA] | %7
w: re- cord- ed|in His Word, Hal- le- lu- jah!|It is on- ly|
w: a mess- age|from a- bove, Hal- le- lu- jah!|Je- sus said it|
w: you on- ly|look to Him, Hal- le- lu- jah!|Look to Je- sus|
w: be- liev- ing|on His name, Hal- le- lu- jah!|I ~ trust- ed|
 [DG][DG][DG][DG] [DF]2 [DA]2 | [DG]6 ||"^Refrain" d>d | (z2 G>G [Gd])[GB][FA]G | %11
w: that you “look and live.” *||||
w: and I know ’tis true. Look|and|live, O|* * * sin- ner, live,|
w: who a- lone can save. *||||
w: and He saved my soul. *||||
 (F2 F>F F2) [Fd]>[Fd] | [Gd]2 [GB]2 A2 [G^c]2 | [Fd]6 DD | [DG][DG][DG][DG] [CF]2 [CE]>[CD] | %15
w: ||||
w: to * * * Je- sus|and live; ’Tis re-|cord- ed in|His Word, Hal- le- lu- jah! It|
w: ||||
w: ||||
 [Dd]4 [Ec]2 [EA][EA] | [DG][DG][DG][DG] [DF]2 [DA]2 | [DG]6 |] %18
w: |||
w: is on- ly that|you look and live. * *||
w: |||
w: |||
V:2
 DD | x8 | x8 | x8 | x8 | x8 | x8 | x8 | x6 || x2 | d4- x4 | d6 x2 | x8 | x8 | x8 | x8 | x8 | x6 |] %18
w: mess- age||||||||||||||||||
w: mess- age||||||||||Look|now|||||||
w: of- fered||||||||||||||||||
w: tell you||||||||||||||||||
V:3
 D,D, | [G,,B,][G,,B,] [G,,B,]>[G,,B,] [A,,A,]2 [A,,A,]>[A,,A,] | [B,,G,]4 [C,G,]2 [C,C]2 | %3
w: ~ ~|~ ~ ~ ~ ~ ~ ~|~ ~ ~|
 [D,B,][D,B,][D,B,][D,B,] [D,A,]2 [D,C]2 | [G,,B,]6 D,D, | %5
w: ~ ~ ~ ~ ~ ~|~ ~ ~|
 [G,,B,][G,,B,][G,,B,][G,,B,] [A,,A,]2 [A,,A,]>[A,,A,] | [B,,G,]4 [C,G,]2 [C,C][C,C] | %7
w: ~ ~ ~ ~ ~ ~ ~|~ ~ ~ ~|
 [D,B,][D,B,][D,B,][D,B,] [D,A,]2 [D,C]2 | [G,,B,]6 || z2 | %10
w: ~ ~ ~ ~ ~ “Look|and||
 z2 [G,B,]>[G,B,] [G,B,][G,D][G,C][G,B,] | [D,A,]2 [D,A,]>[D,A,] [D,A,]2 [D,C]>[D,C] | %12
w: live,” O sin- ner, live, “look|and live,” * * * *|
 [G,B,]2 [G,D]2 [F,D]2 [E,A,]2 | [D,A,]6 D,D, | %14
w: ||
 [G,,B,][G,,B,][G,,B,][G,,B,] [A,,A,]2 [A,,A,]>[A,,A,] | [B,,G,]4 [C,G,]2 [C,C][C,C] | %16
w: ||
 [D,B,][D,B,][D,B,][D,B,] [D,A,]2 [D,C]2 | [G,,B,]6 |] %18
w: ||
V:4
 D,D, | x8 | x8 | x8 | x8 | x8 | x8 | x8 | x6 || x2 | x8 | x8 | x8 | x8 | x8 | x8 | x8 | x6 |] %18
w: ~ ~||||||||||||||||||

